packages/core/src/svgs/hgpt.svg

<svg width="24" height="24" viewBox="0 0 24 24" fill="none" xmlns="http://www.w3.org/2000/svg">
<g clip-path="url(#clip0_31_11409)">
<path d="M0 0H24V24H0V0Z" fill="#F0F3FA"/>
<path d="M12.0001 19.2858C13.9324 19.2858 15.7855 18.5182 17.1518 17.1518C18.5182 15.7855 19.2858 13.9324 19.2858 12.0001C19.2858 10.0678 18.5182 8.21463 17.1518 6.84829C15.7855 5.48196 13.9324 4.71436 12.0001 4.71436C10.0678 4.71436 8.21463 5.48196 6.84829 6.84829C5.48196 8.21463 4.71436 10.0678 4.71436 12.0001C4.71436 13.9324 5.48196 15.7855 6.84829 17.1518C8.21463 18.5182 10.0678 19.2858 12.0001 19.2858Z" fill="url(#paint0_linear_31_11409)"/>
<path style="mix-blend-mode:multiply" d="M16.5128 17.7215C15.7611 18.325 14.8971 18.7734 13.9709 19.0406C13.0446 19.3078 12.0745 19.3885 11.1169 19.2781C10.1592 19.1676 9.23296 18.8683 8.39183 18.3973C7.55071 17.9263 6.81142 17.293 6.2168 16.5342C5.62218 15.7754 5.18407 14.9062 4.92784 13.9768C4.67161 13.0475 4.60236 12.0765 4.72411 11.1202C4.84585 10.1639 5.15617 9.24129 5.63708 8.40579C6.11799 7.57029 6.75993 6.83853 7.5257 6.25293C8.53284 7.57722 9.08141 9.29579 8.74713 11.2072C8.68713 11.5501 8.73855 11.8629 8.87141 12.1501C9.07713 12.6044 9.49284 12.9986 10.0371 13.3672C10.3157 13.5601 10.6371 13.7444 10.9671 13.9244C11.3528 14.1344 11.7557 14.3401 12.1757 14.5501C12.6043 14.7644 13.0457 14.9829 13.4743 15.2186C13.9217 15.4631 14.3579 15.7277 14.7814 16.0115C15.1243 16.2429 15.4457 16.4958 15.7286 16.7701C16.0284 17.0535 16.2918 17.3731 16.5128 17.7215Z" fill="url(#paint1_linear_31_11409)"/>
<path d="M7.84719 10.2856H16.1572C16.5433 10.298 16.9089 10.4627 17.1739 10.7438C17.4389 11.0249 17.5819 11.3995 17.5715 11.7856C17.5715 13.0842 16.5686 14.1428 15.3386 14.1428H8.6572C7.43148 14.1428 6.42862 13.0842 6.42862 11.7856C6.42292 11.5939 6.45512 11.403 6.52339 11.2237C6.59165 11.0444 6.69464 10.8804 6.82643 10.7411C6.95823 10.6017 7.11624 10.4897 7.29141 10.4116C7.46657 10.3334 7.65545 10.2906 7.84719 10.2856Z" fill="url(#paint2_linear_31_11409)"/>
<path d="M10.5858 12.857C10.663 12.7327 10.7144 12.5956 10.7144 12.4456C10.7144 11.9613 10.2344 11.5713 9.64296 11.5713C9.05153 11.5713 8.57153 11.9613 8.57153 12.4456C8.57153 12.5956 8.62296 12.7327 8.7001 12.857H10.5858ZM15.7287 12.857C15.8058 12.7327 15.8572 12.5956 15.8572 12.4456C15.8572 11.9613 15.3772 11.5713 14.7858 11.5713C14.1944 11.5713 13.7144 11.9613 13.7144 12.4456C13.7144 12.5956 13.7658 12.7327 13.843 12.857H15.7287Z" fill="#D8DEE8"/>
</g>
<defs>
<linearGradient id="paint0_linear_31_11409" x1="18.0901" y1="9.68578" x2="11.9615" y2="14.0915" gradientUnits="userSpaceOnUse">
<stop stop-color="#6767D9"/>
<stop offset="1" stop-color="#9578EF"/>
</linearGradient>
<linearGradient id="paint1_linear_31_11409" x1="4.71427" y1="14.6572" x2="10.6543" y2="10.0501" gradientUnits="userSpaceOnUse">
<stop stop-color="#AA80F9"/>
<stop offset="1" stop-color="#675ADD"/>
</linearGradient>
<linearGradient id="paint2_linear_31_11409" x1="6.42862" y1="12.2142" x2="17.5715" y2="12.2142" gradientUnits="userSpaceOnUse">
<stop stop-color="#444B8C"/>
<stop offset="1" stop-color="#26264F"/>
</linearGradient>
<clipPath id="clip0_31_11409">
<rect width="24" height="24" fill="white"/>
</clipPath>
</defs>
</svg>

<svg xmlns="http://www.w3.org/2000/svg" width="24" height="24" fill="none" viewBox="0 0 24 24"><g clip-path="url(#a)"><path fill="#F0F3FA" d="M0 0h24v24H0z"/><path fill="url(#b)" d="M12 19.286a7.285 7.285 0 1 0 0-14.57 7.285 7.285 0 0 0 0 14.57"/><path fill="url(#c)" d="M16.513 17.722a7.286 7.286 0 1 1-8.987-11.47c1.007 1.325 1.555 3.044 1.221 4.955-.06.343-.008.656.124.943.206.454.622.849 1.166 1.217.279.193.6.377.93.557.386.21.789.416 1.209.626.428.214.87.433 1.298.669q.672.366 1.307.793c.343.23.665.484.948.758q.451.428.784.951" style="mix-blend-mode:multiply"/><path fill="url(#d)" d="M7.847 10.286h8.31a1.46 1.46 0 0 1 1.415 1.5c0 1.298-1.003 2.357-2.233 2.357H8.657c-1.226 0-2.228-1.059-2.228-2.357a1.457 1.457 0 0 1 1.418-1.5"/><path fill="#D8DEE8" d="M10.586 12.857a.8.8 0 0 0 .128-.411c0-.485-.48-.875-1.071-.875s-1.071.39-1.071.875c0 .15.051.287.128.411zm5.143 0a.8.8 0 0 0 .128-.411c0-.485-.48-.875-1.071-.875-.592 0-1.072.39-1.072.875 0 .15.052.287.129.411z"/></g><defs><linearGradient id="b" x1="18.09" x2="11.961" y1="9.686" y2="14.091" gradientUnits="userSpaceOnUse"><stop stop-color="#6767D9"/><stop offset="1" stop-color="#9578EF"/></linearGradient><linearGradient id="c" x1="4.714" x2="10.654" y1="14.657" y2="10.05" gradientUnits="userSpaceOnUse"><stop stop-color="#AA80F9"/><stop offset="1" stop-color="#675ADD"/></linearGradient><linearGradient id="d" x1="6.429" x2="17.572" y1="12.214" y2="12.214" gradientUnits="userSpaceOnUse"><stop stop-color="#444B8C"/><stop offset="1" stop-color="#26264F"/></linearGradient><clipPath id="a"><path fill="#fff" d="M0 0h24v24H0z"/></clipPath></defs></svg>
